svg_80x80/stride3d.svg

<svg viewBox="0 0 80 80" xmlns="http://www.w3.org/2000/svg">
<rect width="100%" height="100%" fill="#333638"/>
<path d="M40.6705 38.3484L68.7205 21.7874L41.8605 6C32.4425 11.339 23.3815 16.8565 14.3205 22.8756L40.6705 38.3484Z" fill="white"/>
<path d="M68.321 57.7829L55.503 50.3611L40.696 58.9902C40.4336 58.843 40.1935 58.7145 39.9671 58.5933C39.7094 58.4553 39.4693 58.3268 39.234 58.191C38.3228 57.6501 37.4128 57.1103 36.5032 56.5708C33.1958 54.609 29.8938 52.6505 26.5605 50.6501C26.1756 50.3651 25.7092 50.2112 25.2302 50.2112C24.7513 50.2112 24.285 50.3651 23.9 50.6501C22.5917 51.454 21.2429 52.2012 19.8956 52.9476C19.2908 53.2826 18.6864 53.6175 18.086 53.9572L12 57.4259C12.1141 57.5158 12.2015 57.5903 12.2748 57.6527C12.3816 57.7437 12.4583 57.809 12.544 57.8595C21.5823 63.1361 30.6093 68.4269 39.625 73.7318C39.9638 73.9353 40.358 74.0268 40.7518 73.9932C41.1455 73.9596 41.5186 73.8027 41.818 73.5448L67.3775 58.4886C67.7061 58.2728 68.0212 58.0372 68.321 57.7829Z" fill="white"/>
<path d="M12.3315 39.1559L39.1405 54.9093V40.7372L12.3315 24.9753V39.1559Z" fill="white"/>
<path d="M67.5815 40.0061L55.4775 32.8903L42.1835 40.7457V54.9008L67.5815 40.0061Z" fill="white"/>
<path d="M68.763 54.8583V42.5565L58.325 48.7117L68.763 54.8583Z" fill="white"/>
</svg>

<svg xmlns="http://www.w3.org/2000/svg" viewBox="0 0 80 80">
  <rect width="100%" height="100%" fill="#333638"/>
  <path fill="#fff" d="m40.7 38.3 28-16.5L42 6a453.9 453.9 0 0 0-27.6 16.9l26.4 15.4ZM68.3 57.8l-12.8-7.4L40.7 59l-.7-.4-.8-.4-2.7-1.6-10-6a2.2 2.2 0 0 0-2.6 0c-1.3.9-2.7 1.6-4 2.3l-1.8 1-6.1 3.5.3.3.2.2 27.1 15.8a1.9 1.9 0 0 0 2.2-.2l25.6-15 1-.7Z"/>
  <path fill="#fff" d="m12.3 39.2 26.8 15.7V40.7L12.3 25v14.2ZM67.6 40 55.5 33l-13.3 7.8V55L67.6 40ZM68.8 54.9V42.6l-10.5 6.1L68.8 55Z"/>
</svg>
